X:1
T: Captain Lockhart
C:
R:Reel
Q: 232
K:C
M:4/4
L:1/8
|:e|cG GF E2 DC|Dd de fe de|cG GF Ec BA|GE FD CC Ce|
cG GF E2 DC|Dd de fe de|cG GF Ec BA|GE FD CC Cf|
ec ge eg fe|de fg af da|ec gc eg fe|fd ge cc cg|
eg cg ec gc|fd ad fd ad|eg de cd Ac|GE cE CC C:|
